!!!!SEGMENT: pl-kk--kk-i-6--026-003_palestrina-giovanni-pierluigi-da--missa-marcelli-papae-patrem.krn
!!!cenid: 16xx:991
!!!COM: Palestrina, Giovanni Pierluigi da
!!!COM-rismID: pe1904
!!!CDT: ~1525-1594/02/02
!!!CNT: Italian
!!!OPR: Missa Marcelli Papae
!!!OTL: Patrem
!!!OMV: 003
!!!PDT:
!!!AGN: Sacred; Mass
!!!SMS-siglum: PL-Kk
!!!SMS-shelfmark: Kk.I.6
!!!SMS-shelfwork: 026-003 M
!!!SMS-variant:
!!!SMS-altvar:
!!!NIFC-rismSourceID: 1001136041
!!!NIFC-islandoraID: pl-kk:1634
!!!URL-pdf-islandora: https://repozytorium.nifc.pl/islandora/object/pl-kk%3A1634/datastream/PDF/view
!!!URL-scan: https://polish.musicsources.pl/pl/lokalizacje/galeria/rekopisy/6133 @EN{Scan on Polish Music Sources Website} @PL{Skany w portalu Dziedzictwo Muzyki Polskiej w otwartym dostępie}
!!!ONB-nifc: UWAGA: C (skan 0028-0032, s. 52-61), T (skan 0131-0136, s. 66-76), B (skan 0241-0246, s. 65-74) Części Mszy: 1. Kyrie, 2. Et in terra, 3. Patrem, 4. Sanctus, 5. Agnus Dei
!!!AIN: 1 empty 1 tenor 1 vox
!!!key:
**kern	**text	**kern	**text	**kern	**text
*part3	*part3	*part2	*part2	*part1	*part1
*staff3	*staff3	*staff2	*staff2	*staff1	*staff1
*Iempty	*	*Itenor	*	*Ivox	*
*I"Baſsus.	*	*I"Tenor.	*	*I"Cantus.	*
*I'B	*	*I'T	*	*I'S	*
*clefF4	*	*clefC3	*	*clefC4	*
*k[b-]	*	*k[b-]	*	*k[b-]	*
*F:	*	*F:	*	*F:	*
*M2/1	*	*M2/1	*	*M2/1	*
*met(c|)	*	*met(c|)	*	*met(c|)	*
=1	=1	=1	=1	=1	=1
0C/	PA-	0c\	PA-	0G/	PA-
=2-	=2-	=2-	=2-	=2-	=2-
1C/	-trem	1c\	-trem	1G/,<	-trem
1C/	O-	1c\	O-	1G/	O-
=3-	=3-	=3-	=3-	=3-	=3-
1.F\	-mni-	1.c\	-mni-	1.A\	-mni-
!LO:TX:t=P:problem=all\center&colon; global	!	!	!	!LO:TX:t=P:problem=kreska pseudotaktowa	!
2E\	-po-	2c/	-po-	2G/	-po-
=4-	=4-	=4-	=4-	=4-	=4-
!	!	!LO:TX:t=P:problem=all\center&colon; global	!	!	!
0D\	-ten-	2.d\	-ten-	0F/	-ten-
.	.	8c/L	.	.	.
.	.	8B-/J	.	.	.
.	.	2A/	-tem	.	.
!	!	!LO:TX:t=P:♯below:problem	!	!	!
!	!	!LO:N:acc=#	!	!	!
.	.	2Bn/	fa-	.	.
=5-	=5-	=5-	=5-	=5-	=5-
2C/	-tem	2c/	-cto-	2G,</	-tem
*	*	*custos:c	*	*	*
2C/	fa-	2c/	-rem	2G/	fa-
!	!	!LO:LB:g=original	!	!	!
2C/	-cto-	2c/	Cae-	2G/	-cto-
!	!	!	!	!LO:TX:t=P:problem=kreska pseudotaktowa	!
2C/	-rem	2c/	-li	2G/	-rem
=6-	=6-	=6-	=6-	=6-	=6-
1F\	Cae-	2.c/	et	1A\	Cae-
.	.	4B-y/	.	.	.
2F\	-li	2A/	.	2F,</	-li
*	*	*	*	*custos:A	*
*custos:D	*	*	*	*	*
!	!	!	!	!LO:TX:t=P:problem=kreska pseudotaktowa	!
2E\	et	2.G/	ter-	2G/	et
=7-	=7-	=7-	=7-	=7-	=7-
*lig	*	*	*	*	*
!LO:LB:g=original	!	!	!	!LO:LB:g=original	!
1D\	ter-	.	.	2A/	ter-
.	.	4F/	.	.	.
.	.	1F/	.	4G/	.
!	!	!	!	!LO:TX:t=P:problem=kreska pseudotaktowa	!
.	.	.	.	4F/	.
1C/	.	.	.	1G/	.
.	.	2E/	.	.	.
*Xlig	*	*	*	*	*
=8-	=8-	=8-	=8-	=8-	=8-
2FF/	-rae	1F/	-rae	2F,</	-rae
1F\	Vi-	.	.	1A\	Vi-
.	.	2r	.	.	.
!	!	!	!	!LO:TX:t=P:problem=kreska pseudotaktowa	!
2F\	-ſi-	1c\	Vi-	2A/	ſi
=9-	=9-	=9-	=9-	=9-	=9-
2C/	-bi-	.	.	2G/	-bi-
2C/	-li-	2c/	-ſi-	2G/	-li-
1FF/	-um	2c/	-bi-	1A\	-um
.	.	2c/	-li-	.	.
=10-	=10-	=10-	=10-	=10-	=10-
1.BB-/	Om-	2d\	-um	1.B-\	O-
.	.	1d\	om-	.	.
*	*	*custos:c	*	*	*
!	!	!	!	!LO:TX:t=P:problem=kreska pseudotaktowa	!
!	!	!	!	!LO:TX:t=P:problem=all\center&colon; global	!
2BB-/	-ni-	2d\	-ni-	2B-\	-mni-
=11-	=11-	=11-	=11-	=11-	=11-
!	!	!LO:LB:g=original	!	!	!
1FF/	-um	2c/	-um	2A/	-um
.	.	1c\	et	1F/	et
00r	.	.	.	.	.
!	!	!	!	!LO:TX:t=P:problem=kreska pseudotaktowa	!
.	.	2c/	in	2E/	in
=12-	=12-	=12-	=12-	=12-	=12-
.	.	2c/	vi-	2.F/	vi-
.	.	2A/	-ſi	.	.
.	.	.	.	4E/	-ſi-
.	.	2B-/	bi-	2D/	.
.	.	2.c/	.	2C/	.
=13-	=13-	=13-	=13-	=13-	=13-
.	.	.	.	2G/	-bi-
!	!	!LO:TX:t=P:problem=# below	!	!	!
!	!	!LO:N:acc=#	!	!	!
.	.	8Bn/L	.	.	.
.	.	8A/J	.	.	.
*	*	*	*	*custos:C	*
!	!	!LO:TX:t=P:problem=# below	!	!	!
!	!	!LO:N:acc=#	!	!LO:TX:t=P:problem=kreska pseudotaktowa	!
.	.	2Bn/	-li-	2G/	-li-
!	!	!	!	!LO:LB:g=original	!
2rBB	.	2c/	-um	2C,</	-um
1C/	et	1c\	et	1G/	Et
=14-	=14-	=14-	=14-	=14-	=14-
!	!	!	!	!LO:TX:t=P:problem=kreska pseudotaktowa	!
2C/	in	2c/	in	2G/	in
!	!	!LO:SIC:v:l:s=u-	!	!	!
1C/	U-	1c\	V-	1G/	v-
=15-	=15-	=15-	=15-	=15-	=15-
2AA/	-num	2c/	-num	2A/	-num
1D\	Do-	1A/	Do-	1F/	Do-
*custos:C	*	*	*	*	*
!	!	!	!	!LO:TX:t=P:problem=kreska pseudotaktowa	!
2D/	-mi-	2B-y/	-mi-	2F/	-mi-
=16-	=16-	=16-	=16-	=16-	=16-
!LO:LB:g=original	!	!	!	!	!
2C/	-num	2c/	-n(um)	2G/	-num
1BB-/	Je-	1d\	Je-	1D/	Je-
!	!	!	!	!LO:TX:t=P::problem=kreska pseudotaktowa&colon;między nutą a kropką	!
2AA/	-ſum	2c/	-ſ(um)	2.F/	-ſum
=17-	=17-	=17-	=17-	=17-	=17-
*	*	*custos:B	*	*	*
1GG/	Chri-	1B-/	Chri-	.	.
.	.	.	.	8E/L	.
.	.	.	.	8D/J	.
!	!	!	!	!LO:TX:t=P:problem=kreska pseudotaktowa	!
.	.	.	.	2E/	Chri-
2FF/	-ſtum	2A/	-ſtum	2F,</	-ſtum
2.F\	fi-	2.c/	fi-	2.A/	fi-
=18-	=18-	=18-	=18-	=18-	=18-
.	.	.	.	.	-li-
4F\	-li-	4c/	-li-	4A/	-um
!	!	!	!	!LO:TX:t=P:problem=kreska pseudotaktowa	!
2E\	-um	2c/	-um	2G/	.
2D/	De-	2B-/	De-	2F/	De-
!	!	!	!	!LO:TX:t=P:problem=kreska pseudotaktowa	!
2C/	-i	2A/	-i	2E/	-i
=19-	=19-	=19-	=19-	=19-	=19-
2.D/	v-	2B-/	v-	2.F/	V-
.	.	2A/	-ni-	.	.
4C/	-ni-	.	.	4E/	-ni-
2BB-/	-ge-	2G/	-ge-	2D/	-ge-
!	!	!	!	!LO:TX:t=P:problem=kreska pseudotaktowa	!
2AA/	-ni-	2F/	-ni-	2C/	-ni-
=20-	=20-	=20-	=20-	=20-	=20-
2GG/	-tum	2G/	-tum	2D,</	-tum
1GG/	et	1d\	et	1B-\	et
!	!	!	!	!LO:TX:t=P:problem=kreska pseudotaktowa	!
2GG/	ex	2d\	ex	2B-\	ex
=21-	=21-	=21-	=21-	=21-	=21-
2GG/	Pa-	2d\	Pa-	2B-\	Pa-
!	!	!	!	!LO:TX:t=P:problem=kreska pseudotaktowa	!
2GG/	-tre	2d\	-tre	2B-\	-tre
*custos:FF	*	*	*	*	*
1BB-/	na-	1d\	na-	1B-\	na-
=22-	=22-	=22-	=22-	=22-	=22-
!LO:LB:g=original	!	!	!	!	!
2FF/	-tum	2c/	-tum	2A/	-tum
1F\	an-	1f\	an-	1c\	an-
*	*	*custos:d	*	*	*
!	!	!	!	!LO:TX:t=P:problem=kreska pseudotaktowa	!
2C/	-te	2e\	-te	2c\	-te
=23-	=23-	=23-	=23-	=23-	=23-
!	!	!LO:LB:g=original	!	!	!
2.D/	O-	2d\	O-	2A/	om-
!	!	!	!	!LO:TX:t=P:problem=kreska pseudotaktowa	!
.	.	2B-/	-mni-	2F/	-ni-
4D/	-mni-	.	.	.	.
2C/	-a	2c/	-a	2G,</	-a
*	*	*lig	*	*	*
1BB-/	Sae-	1d\	Sae-	1B-\	Sae-
=24-	=24-	=24-	=24-	=24-	=24-
2C/	-cu-	1c\	.	2G/	-cu-
1GG/	-la	.	.	1G/	-la
!	!	!	!	!LO:TX:t=P:problem=kreska pseudotaktowa	!
*	*	*Xlig	*	*	*
!	!	!LO:N:acc=#	!	!	!
!	!	!LO:TX:t=P:♯below:problem	!	!	!
.	.	2Bn/	-cu-	.	.
=25-	=25-	=25-	=25-	=25-	=25-
2C/	De-	2c/	-la	2r	.
2C/	-um	2G/	De-	2E/	De-
2BB-/	de	2B-y/	-um	2F/	-um
*	*	*	*	*custos:F	*
!	!	!	!	!LO:TX:t=P:problem=kreska pseudotaktowa	!
2GG/	De-	2B-/	de	2G/	de
=26-	=26-	=26-	=26-	=26-	=26-
!	!	!	!	!LO:PB:g=original	!
1D\	-o	1A/	De-	1F/	De-
2C/	lu-	2c/	-o	2G/	-o
!	!	!	!	!LO:TX:t=P:problem=kreska pseudotaktowa	!
2C/	-men	2G/	lu-	2E/	lu-
=27-	=27-	=27-	=27-	=27-	=27-
2BB-/	de	2B-/	-men	2F/	-men
2GG/	lu-	2B-/	de	2G/	de
2D/	.	2A/	lu-	2F/	lu-
*custos:C	*	*	*	*	*
!	!	!	!	!LO:TX:t=P:problem=kreska pseudotaktowa	!
2D/	-mi-	2B-/	-mi-	2F/	-mi-
=28-	=28-	=28-	=28-	=28-	=28-
!LO:LB:g=original	!	!	!	!	!
2C/	-ne	2c/	-ne	2G,</	-ne
1C/	De-	1c\	De-	1G/	De-
*	*	*custos:A	*	*	*
!	!	!	!	!LO:TX:t=P:problem=kreska pseudotaktowa	!
2AA/	-um	2c/	-um	2A/	-um
=29-	=29-	=29-	=29-	=29-	=29-
!	!	!LO:LB:g=original	!	!	!
1D\	Ve-	(2A/	ve-	1F/	Ve-
.	.	2B-/)	.	.	.
2C/	-rum	1c\	-rum	2G,</	-rum
2C/	de	.	.	2G/	de
=30-	=30-	=30-	=30-	=30-	=30-
2D/	De-	2r	.	2F/	De-
!	!	!	!	!LO:TX:t=P:problem=kreska pseudotaktowa	!
2E\	-o	2c/	de	2E/	-o
*lig	*	*	*	*	*
1F\	Ve-	2c/	De-	2.A/	ve-
.	.	2c/	-o	.	.
.	.	.	.	8G/L	.
.	.	.	.	8F/J	.
=31-	=31-	=31-	=31-	=31-	=31-
1C/	.	1c\	ve-	1G/	.
*Xlig	*	*	*	*	*
*	*	*	*	*custos:c	*
1FF/	-ro	1c\	-ro	1F/	-ro
=32-	=32-	=32-	=32-	=32-	=32-
!	!	!	!	!LO:LB:g=original	!
2r	.	2r	.	2r	.
1F\	Ge-	1f\	ge-	1c\	Ge-
2C/	-ni-	2e\	-ni-	2c\	-ni-
=33-	=33-	=33-	=33-	=33-	=33-
2D/	-tum	2d\	-tum	2A/	-tum
!	!	!	!	!LO:TX:t=P:problem=kreska pseudotaktowa	!
2AA/	non	2c/	non	2A/	non
1D\	fa-	2A/	.	1F/	fa-
.	.	2B-/	fa-	.	.
=34-	=34-	=34-	=34-	=34-	=34-
2C/	-ctum	0c\	-ctum	2G/	-ctum
1FF/	Con-	.	.	1A\	Con-
*custos:D	*	*	*	*	*
!	!	!	!	!LO:TX:t=P:problem=kreska pseudotaktowa	!
2C/	-sub-	.	.	2G/	-sub-
=35-	=35-	=35-	=35-	=35-	=35-
!LO:LB:g=original	!	!	!	!	!
2D/	-ſtan-	00rf	.	2F/	-stan-
!	!	!	!	!LO:TX:t=P:problem=kreska pseudotaktowa	!
2AA/	-ti-	.	.	2E/	-ti-
1BB-/	-a-	.	.	4D/	-a-
.	.	.	.	4E/	.
.	.	.	.	4F/	.
!	!	!	!	!LO:TX:t=P:problem=kreska pseudotaktowa	!
.	.	.	.	4G/	.
=36-	=36-	=36-	=36-	=36-	=36-
2FF/	-lem	.	.	2A/	.
1BB-/	Pa-	.	.	1B-\	.
2C/	.	.	.	1A\	-lem
=37-	=37-	=37-	=37-	=37-	=37-
2D/	.	1r	.	.	.
!	!	!	!	!LO:TX:t=P:problem=kreska pseudotaktowa	!
2E\	.	.	.	2G/	Pa-
!	!	!LO:TX:t=P:problem=brak pauzy 2r	!	!	!
2F\	-tri	2ryy	.	2A,</	-tri
1F\	per	1f\	per	1c\	per
=38-	=38-	=38-	=38-	=38-	=38-
*	*	*	*	*custos:c	*
*	*	*custos:f	*	*	*
!	!	!	!	!LO:TX:t=P:problem=kreska pseudotaktowa	!
2F\	quem	2f\	quem	2c\	quem
!	!	!LO:LB:g=original	!	!LO:LB:g=original	!
2.F\	O-	2f\	o-	2c\	O-
.	.	2f\	-mni-	2c\	-mni-
4F\	-mni-	.	.	.	.
=39-	=39-	=39-	=39-	=39-	=39-
!	!	!	!	!LO:TX:t=P:problem=kreska pseudotaktowa	!
1D\	-a	1f\	-a	1d\	-a
1BB-/	fa-	1f\	fa-	1d\	fa-
=40-	=40-	=40-	=40-	=40-	=40-
1BB-/	-cta	1f\	-cta-	1d\	-cta-
2FF/	ſunt	2f\	-ſunt	2c,<\	-ſunt
*custos:F	*	*	*	*	*
!	!	!	!	!LO:TX:t=P:problem=kreska pseudotaktowa	!
2F\	qui	2c/	Qui	2A/	Qui
=41-	=41-	=41-	=41-	=41-	=41-
!LO:LB:g=original	!	!	!	!	!
2F\	pro-	2c/	pro-	2A/	pro-
!	!	!	!	!LO:TX:t=P:problem=kreska pseudotaktowa	!
2F\	-pter	2c/	-pter	2A/	-pter
2E\	nos	2c/	nos	2G/	nos
2.F\	ho-	2.d\	ho-	2.A/	ho-
=42-	=42-	=42-	=42-	=42-	=42-
4E\	.	4c/	.	4G/	.
4E\	.	1c\	-mi-	4G/	.
8D/L	.	.	.	8F/L	.
!	!	!	!	!LO:TX:t=P:problem=kreska pseudotaktowa	!
8C/J	.	.	.	8E/J	.
2D/	.	.	.	2F/	.
!	!	!	!	!LO:TX:t=P:problem=kreska pseudotaktowa	!
2D/	-mi-	2B-/	.	2F/	-mi-
=43-	=43-	=43-	=43-	=43-	=43-
2C,</	-nes	2c/	-nes	2G/	-nes
2C/	et	2e\	et	2c\	et
2C/	pro-	2e\	pro-	2c\	pro-
*	*	*custos:d	*	*	*
2C/	-pter	2e\	-pter	2c\	-pter
=44-	=44-	=44-	=44-	=44-	=44-
!	!	!LO:LB:g=original	!	!LO:TX:t=P:problem=kreska pseudotaktowa	!
1G\	No-	1d\	no-	1B-\	no-
*	*	*	*	*custos:B	*
2C/	-ſtram	2e\	-ſtr(am)	2c\	-ſtram
!	!	!	!	!LO:LB:g=original	!
(<1F\	ſa-	2f\	ſa-	1c\	ſa-
=45-	=45-	=45-	=45-	=45-	=45-
.	.	1d\	-lu-	.	.
!	!	!	!	!LO:TX:t=P:problem=kreska pseudotaktowa	!
2G\)	.	.	.	2B-\	-lu-
!	!	!	!	!LO:TX:t=P:problem=kreska pseudotaktowa	!
1D\	-lu-	1d\	-tem	1A\	-tem
=46-	=46-	=46-	=46-	=46-	=46-
2GG/	-tem	2r	.	2G/	.
2G\	de	2d\	de	2B-\	de
2.F\	ſcen-	2d\	ſcen-	2.A/	ſcen-
.	.	2c/	-dit	.	.
!	!	!	!	!LO:TX:t=P:problem=kreska pseudotaktowa	!
4E\	.	.	.	4G/	.
=47-	=47-	=47-	=47-	=47-	=47-
1D\	-dit	2B-/	de	2F/	.
.	.	2.A/	Cae-	2F/	.
2C/	.	.	.	2E/	-dit
.	.	4G/	.	.	.
2BB-/	de	1G/	.	2D/	de
=48-	=48-	=48-	=48-	=48-	=48-
1AA/	Cae-	.	.	1C/	Cae-
.	.	2F/	.	.	.
!	!	!	!	!LO:TX:t=P:problem=kreska pseudotaktowa	!
1GG/	-lis	1G/	-lis	1D/	-lis
=49-	=49-	=49-	=49-	=49-	=49-
0C/	Et	1rc	.	0E/	Et
.	.	1c\	Et	.	.
=50-	=50-	=50-	=50-	=50-	=50-
1C/	in	1c\	in	1E/	in
1FF/	car-	1A/	car-	1F/	car-
=51-	=51-	=51-	=51-	=51-	=51-
!	!	!LO:LB:g=original	!	!LO:TX:t=P:problem=kreska pseudotaktowa	!
1BB-/	-na-	2.B-/	-na-	1D/	-na-
.	.	4c/	.	.	.
!	!	!	!	!LO:TX:t=P:problem=kreska pseudotaktowa	!
1BB-/	-tus	2d\	.	1B-\	-tus
.	.	2d\	-tus	.	.
=52-	=52-	=52-	=52-	=52-	=52-
2FF/	eſt	2c/	eſt	2A/	eſt
*	*	*	*	*custos:c	*
!	!	!	!	!LO:TX:t=P:problem=kreska pseudotaktowa	!
2F\	de	2f\	de	2c\	de
!	!	!	!	!LO:LB:g=original	!
1F\	ſpi-	1f\	ſpi-	1c\	ſpi-
=53-	=53-	=53-	=53-	=53-	=53-
2C/	-ri-	2e\	-ri-	2c\	-ri-
*custos:E	*	*	*	*	*
2D/	-tu	2.d\	-tu	2A/	-tu
!LO:LB:g=original	!	!	!	!	!
1E-X\	ſan-	.	.	1G/	ſan-
.	.	8c/L	.	.	.
.	.	8B-/J	.	.	.
.	.	2c/	ſan-	.	.
=54-	=54-	=54-	=54-	=54-	=54-
1D\	-cto	1d\	-cto	1A\	-cto
1.BB-/	ex	1.d\	ex	1.B-\	ex
=55-	=55-	=55-	=55-	=55-	=55-
2BB-/	Ma-	2d\	Ma-	2B-\	Ma-
*	*	*custos:e	*	*	*
1FF/	-ri-	1f\	-ri-	1.c\	-ri-
=56-	=56-	=56-	=56-	=56-	=56-
!	!	!LO:LB:g=original	!	!	!
1C/	-a	2e\	-a	.	.
.	.	1c\	Vir-	2C/	-a
1GG/	Vir-	.	.	1.D/	Vir-
.	.	4B-/	.	.	.
.	.	4A/	.	.	.
=57-	=57-	=57-	=57-	=57-	=57-
1GG/	-gi-	2B-/	.	.	.
.	.	2B-/	-gi-	2G/	-gi-
1C/	-ne	1c\	-ne	1G/	-ne
=58-	=58-	=58-	=58-	=58-	=58-
0C/	et	0e\	et	0c\	et
=59-	=59-	=59-	=59-	=59-	=59-
1FF/	ho-	1f\	ho-	1c\	ho-
1BB-/	-mo	1d\	-mo	1B-\	-mo
=60-	=60-	=60-	=60-	=60-	=60-
1FF/	fa-	1.c\	fa-	1A\	fa-
1C/	-ctus	.	.	1G/	-ctus
.	.	2c/	-ctus	.	.
=61-	=61-	=61-	=61-	=61-	=61-
!LO:TX:t=P:problem=druga fermata odwrócona pod nutą	!	!LO:TX:t=P:problem=druga fermata odwrócona pod nutą	!	!LO:TX:t=P:problem=druga fermata odwrócona pod nutą	!
0FF/;	eſt	0c\;	eſt	0A\;	eſt
=62-	=62-	=62-	=62-	=62-	=62-
*M2/1	*	*M2/1	*	*M2/1	*
*met(c|)	*	*met(c|)	*	*met(c|)	*
!	!	!LO:LB:g=original	!	!	!
!LO:PB:g=original	!	!LO:TX:b:t=Crucifix.	!	!	!
0C/	Cru-	00r	.	0c\	Cru-
=63-	=63-	=63-	=63-	=63-	=63-
1D\	-ci-	.	.	1B-\	-ci-
1F\	-fi-	.	.	1A\	-fi-
=64-	=64-	=64-	=64-	=64-	=64-
2Eny\	-xus	2r	.	2G,</	-xus
1F\	e-	1c\	E-	1A\	e-
2E\	-ti-	2c/	-ti-	2G/	-ti-
=65-	=65-	=65-	=65-	=65-	=65-
2D/	-am	2B-/	-am	2F/	-am
2C/	pro	2A/	pro	2E/	pro-
1BB-/	no-	1d\	no-	(2F/	-no-
.	.	.	.	2G/)	.
=66-	=66-	=66-	=66-	=66-	=66-
!	!	!LO:TX:t=P:♯below:problem	!	!	!
1AA/	-bis	2c#X/	-bis	1A\	-bis
.	.	2A/	ſub	.	.
00r	.	2B-/	Pon-	1rA	.
.	.	2cny/	-ti-	.	.
=67-	=67-	=67-	=67-	=67-	=67-
.	.	2d\	-o	2rF	.
.	.	2e\	Pi-	2C/	ſub
.	.	2f\	-la-	2F/	Pon-
!	!	!	!	!LO:TX:t=P:problem=kreska pseudotaktowa	!
.	.	2.e\	.	2G/	-ti-
=68-	=68-	=68-	=68-	=68-	=68-
.	.	.	.	2A/	-o
.	.	4d\	.	.	.
*	*	*	*	*custos:A	*
.	.	1d\	.	2B-\	Pi-
!	!	!	!	!LO:PB:g=original	!
0rC	.	.	.	1A\	-la-
*	*	*custos:d	*	*	*
.	.	2c/	.	.	.
=69-	=69-	=69-	=69-	=69-	=69-
!	!	!LO:LB:g=original	!	!	!
.	.	1d\,<	-to	1D/,	-to
0D\	Paſ-	0d\	Paſ-	0A\	Paſ-
=70-	=70-	=70-	=70-	=70-	=70-
1BB-/	-sus	1d\	-sus	1B-\	-sus
=71-	=71-	=71-	=71-	=71-	=71-
*custos:C	*	*	*	*	*
1F\	et	1.c\	et	1.A\	et
!LO:LB:g=original	!	!	!	!	!
1C/	ſe-	.	.	.	.
.	.	2B-/	ſe-	2G/	ſe-
=72-	=72-	=72-	=72-	=72-	=72-
!	!	!	!	!LO:TX:t=P:problem=# below	!
1D\	-pul-	2A/	-pul-	2F#X/	-pul-
.	.	2G/	.	1G/	.
1D\	-tus	1A/	-tus	.	.
!	!	!	!	!LO:TX:t=P:problem=# below	!
.	.	.	.	2F#X/	-tus
=73-	=73-	=73-	=73-	=73-	=73-
!	!	!	!	!LO:TX:t=P:problem=kreska pseudotaktowa	!
1GG/	eſt	1G/	eſt	1G/	eſt
2rGG	.	2r	.	2r	.
2GG/	Et	2d\	Et	2B-\	Et
=74-	=74-	=74-	=74-	=74-	=74-
2GG/	re-	2d\	re-	2B-\	re-
!	!	!	!	!LO:TX:t=P:problem=kreska pseudotaktowa	!
2GG/	-ſur-	2d\	-ſur-	2B-\	-ſur-
1D\	-re-	1d\	-re-	1A\	-re-
=75-	=75-	=75-	=75-	=75-	=75-
1D\	-xit	1A/	-xit	1Fny/	-xit
0r	.	2.c/	ter-	2.A/	ter-
.	.	4B-/	-ti-	4G/	.
=76-	=76-	=76-	=76-	=76-	=76-
.	.	2A/	-a	2F/	-a
*	*	*custos:F	*	*custos:D	*
.	.	2G/	di-	2E/	di-
!	!	!	!	!LO:TX:t=P:problem=kreska pseudotaktowa	!
!	!	!LO:LB:g=original	!	!LO:LB:g=original	!
1r	.	1F/	.	1D/	.
=77-	=77-	=77-	=77-	=77-	=77-
2r	.	1G/	-e	2C/	-e
2C/	ſe-	.	.	2c\	ſe-
2D/	-cun-	00r	.	2B-\	-cun-
!	!	!	!	!LO:TX:t=P:problem=kreska pseudotaktowa	!
2E\	-dum	.	.	2G/	-dum
=78-	=78-	=78-	=78-	=78-	=78-
2F\	ſcri-	.	.	2A/	ſcri-
2.G\	-ptu-	.	.	2.B-\	-ptu-
4F\	.	.	.	4A/	.
1F\	.	.	.	4A/	.
.	.	.	.	8G/L	.
.	.	.	.	8F/J	.
=79-	=79-	=79-	=79-	=79-	=79-
.	.	.	.	1G/	.
*custos:F	*	*	*	*	*
2E\	.	.	.	.	.
!LO:LB:g=original	!	!	!	!	!
1F\	ras	1rc	.	1F/	-ras
=80-	=80-	=80-	=80-	=80-	=80-
2r	.	2r	.	2rF	.
2F\	Et	1c\	Et	1A\	Et
1F\	a	.	.	.	.
.	.	2c/	a	2A/	a
=81-	=81-	=81-	=81-	=81-	=81-
1D\	ſcen-	1d\	ſcen-	1A\	ſcen-
2C/	-dit	2e\	-dit	2c\	-dit
2C/	in	2e\	in	2c\	in
=82-	=82-	=82-	=82-	=82-	=82-
1BB-/	Cae-	1f\	Cae-	1d\	Cae-
0FF/	-lum	1f\	-lum	2c\	-lum
*	*	*	*	*custos:F	*
.	.	.	.	2F/	ſe-
=83-	=83-	=83-	=83-	=83-	=83-
!	!	!	!	!LO:LB:g=original	!
.	.	2re	.	4F/	-det
.	.	.	.	4G/	.
.	.	2f\	Se-	4A/	.
!	!	!	!	!LO:TX:t=P:problem=kreska pseudotaktowa	!
.	.	.	.	4B-\	.
00r	.	2e\	-det	2c\	.
.	.	2c/	ad	2A/	ad
=84-	=84-	=84-	=84-	=84-	=84-
.	.	2.d\	dex-	2.B-\	dex-
!	!	!	!	!LO:TX:t=P:problem=kreska pseudotaktowa	!
.	.	4d\	-te-	4B-\	-te-
.	.	2c/	-ram	2A/	-ram
.	.	2.d\	Pa-	2.G/	Pa-
=85-	=85-	=85-	=85-	=85-	=85-
.	.	4c/	.	4A/	.
*	*	*custos:B-	*	*	*
.	.	2A/	.	2F/	.
!	!	!LO:LB:g=original	!	!	!
1rD	.	1B-/	.	1G/	.
=86-	=86-	=86-	=86-	=86-	=86-
2r	.	2A,</	-tris	2D/	-tris
!	!	!	!	!LO:TX:t=P:problem=kreska pseudotaktowa	!
2D/	Et	2d\	Et	2A/	Et
2.F\	i-	2.c/	i-	2.A/	i-
4F\	-te-	4c/	-te-	4A/	-te-
=87-	=87-	=87-	=87-	=87-	=87-
2F\	-rum	2c/	-rum	2A/	-rum
2E\	ven-	2c/	ven-	2G/	ven-
2D/	-tu-	2B-/	-tu-	2F/	-tu-
*custos:BB-	*	*	*	*	*
2C/	-rus	2A/	-rus	2E/	-rus
=88-	=88-	=88-	=88-	=88-	=88-
*	*	*	*	*custos:B-	*
!LO:LB:g=original	!	!	!	!	!
0BB-/	eſt	2B-/	eſt	1F/	eſt
.	.	2B-/	cum	.	.
!	!	!	!	!LO:LB:g=original	!
.	.	2.d\	glo-	00r	.
.	.	4d\	-ri-	.	.
=89-	=89-	=89-	=89-	=89-	=89-
2r	.	2d\	-a	.	.
2C/	iu-	2.c/	iu-	.	.
2D/	-di-	.	.	.	.
.	.	4B-/	-di-	.	.
2BB-/	-ca-	1B-/	-ca-	.	.
=90-	=90-	=90-	=90-	=90-	=90-
1F\	-re	.	.	.	.
.	.	2A/	.	.	.
*	*	*custos:d	*	*	*
1BB-/	vi-	1B-/	-re	1r	.
=91-	=91-	=91-	=91-	=91-	=91-
!	!	!LO:PB:g=original	!	!	!
0BB-/	-vos	0d\	Vi-	0B-\	Vi-
=92-	=92-	=92-	=92-	=92-	=92-
1FF/	et	1c\	-vos	1A\	-vos
!	!	!	!	!LO:TX:t=P:problem=kreska pseudotaktowa	!
1AA/	.	1c\	et	1A\	et
=93-	=93-	=93-	=93-	=93-	=93-
1.BB-/	Mor-	1.B-/	Mor-	1.F/	Mor-
2FF/	-tu-	2A/	-tu-	2F/	-tu-
=94-	=94-	=94-	=94-	=94-	=94-
1FF/	-os	1A/	-os	1F/	-os
2r	.	2rA	.	2rF	.
1F\	Cu-	1c\	Cu-	1A\	Cu-
=95-	=95-	=95-	=95-	=95-	=95-
!	!	!	!	!LO:TX:t=P:problem=kreska pseudotaktowa	!
2E\	-ius	2c/	-ius	2G/	-ius
*custos:E	*	*	*	*	*
1F\	re-	1c\	re-	1A\	re-
=96-	=96-	=96-	=96-	=96-	=96-
2E\	-gni	2.c/	-gni	2G/	-gni
!	!	!	!	!LO:TX:t=P:problem=kreska pseudotaktowa	!
2C/	non	.	.	2E/	non
.	.	4B-/	non	.	.
2D/	e-	2A/	e-	2F/	e-
2E\	-rit	2G/	-rit	2.G/	-rit
=97-	=97-	=97-	=97-	=97-	=97-
*	*	*lig	*	*	*
1F\	fi-	1A/	fi-	.	.
.	.	.	.	4F/	.
.	.	.	.	1F/	fi-
1C/	-nis	1G/	.	.	.
!	!	!	!	!LO:TX:t=P:problem=kreska pseudotaktowa	!
.	.	.	.	2E/	.
*	*	*Xlig	*	*	*
=98-	=98-	=98-	=98-	=98-	=98-
2rBB	.	2A/	-nis	2F,</	-nis
1FF/	Cu-	1c\	Cu-	1A\	Cu-
*	*	*custos:A	*	*custos:F	*
2C/	-ius	2c/	-ius	2G/	-ius
=99-	=99-	=99-	=99-	=99-	=99-
!	!	!	!	!LO:TX:t=P:problem=kreska pseudotaktowa	!
!	!	!LO:LB:g=original	!	!LO:LB:g=original	!
1D\	re-	2A/	re-	1F/	re-
.	.	2B-/	-gni	.	.
1C/	-gni	2c/	non	2G/	-gni
.	.	2G/	e-	2E/	non
=100-	=100-	=100-	=100-	=100-	=100-
0rD	.	2A/	-rit	2F/	e-
!	!	!	!	!LO:TX:t=P:problem=kreska pseudotaktowa	!
.	.	2B-/	fi-	2G/	-rit
.	.	1c\	-nis	2C/	.
.	.	.	.	1c\	Non
=101-	=101-	=101-	=101-	=101-	=101-
2rC	.	1.B-/	non	.	.
!	!	!	!	!LO:TX:t=P:problem=kreska pseudotaktowa	!
2GG/	non	.	.	2B-\	e-
2AA/	e-	.	.	2A/	-rit-
2BB-/	-rit	2D/	e-	2.G/	-fi-
=102-	=102-	=102-	=102-	=102-	=102-
*lig	*	*	*	*	*
1C/	fi-	2.E/	-rit	.	.
.	.	.	.	4F/	.
!	!	!	!	!LO:TX:t=P:problem=kreska pseudotaktowa	!
.	.	.	.	2E/	.
.	.	4F/	.	.	.
1GG/	.	1G/	fi-	1D/	-nis
*Xlig	*	*	*	*	*
=103-	=103-	=103-	=103-	=103-	=103-
!LO:TX:t=P:problem=druga fermata odwrócona pod nutą	!	!LO:TX:t=P:problem=druga fermata odwrócona pod nutą	!	!LO:TX:t=P:problem=druga fermata odwrócona pod nutą	!
0C/;	-nis.	0G/;	-nis	0C/;	.
=104-	=104-	=104-	=104-	=104-	=104-
*M2/1	*	*M2/1	*	*M2/1	*
*met(c|)	*	*met(c|)	*	*met(c|)	*
!LO:LB:g=original	!	!	!	!	!
1.C/	ET	1.c\	Et	1.G/	ET
2C/	in	2c/	in	2G/	in
=105-	=105-	=105-	=105-	=105-	=105-
1C/	Spi-	1c\	Spi-	1G/	Spi-
1C/	-ri-	1c\	-ri-	1G/	-ri-
=106-	=106-	=106-	=106-	=106-	=106-
2FF/	-tum	1c\	-tum	2A,</	-tum
1F\	San-	.	.	1c\	San-
.	.	1.f\	San-	.	.
2F\	-ctum	.	.	2c,<\	-ctum
=107-	=107-	=107-	=107-	=107-	=107-
1F\	Do-	.	.	1c\	Do-
.	.	2f\	-ctum	.	.
1F\	-mi-	2f\	Do-	1c\	-mi-
.	.	2f\	-mi-	.	.
=108-	=108-	=108-	=108-	=108-	=108-
2BB-/	-num	2d\	-num	2B-,<\	-num
1BB-/	et	1d\	et	1B-\	et
2BB-/	Vi-	2d\	vi-	2B-,<\	vi-
=109-	=109-	=109-	=109-	=109-	=109-
4BB-/	-vi-	1d\	-vi-	2B-\	-vi-
4C/	.	.	.	.	.
4D/	.	.	.	1A\	-fi-
*custos:F	*	*	*	*	*
4E\	.	.	.	.	.
!LO:PB:g=original	!	!	!	!	!
2F\	.	2c/	-fi-	.	.
2BB-/	-fi-	2.B-/	-can-	1d\	-can-
=110-	=110-	=110-	=110-	=110-	=110-
*lig	*	*	*	*	*
1D\	-can-	.	.	.	.
.	.	4A/	.	.	.
*	*	*custos:G	*	*	*
.	.	2F/	.	2B-\	.
*	*	*	*	*custos:c	*
!	!	!LO:LB:g=original	!	!	!
1C/	.	1G/	.	1c\	.
*Xlig	*	*	*	*	*
=111-	=111-	=111-	=111-	=111-	=111-
!	!	!	!	!LO:PB:g=original	!
2FF/	-tem	1A/	-tem	2c,<\	-tem
1F\	Qui	.	.	1c\	qui
.	.	2rA	.	.	.
2F\	ex	1f\	qui	2c\	ex
=112-	=112-	=112-	=112-	=112-	=112-
1F\	Pa-	.	.	1c\	Pa-
.	.	2f\	ex	.	.
1D\	-tre	1f\	Pa-	1d\	-tre
=113-	=113-	=113-	=113-	=113-	=113-
!	!	!	!	!LO:N:acc=#	!
!	!	!	!	!LO:TX:t=P:♯below:problem	!
1.G\	fi-	1d\	-tre	1.Bn\	fi-
.	.	2d\	fi-	.	.
2C/	-li-	2e\	-li-	2c\	-li-
=114-	=114-	=114-	=114-	=114-	=114-
1C/	-o	1c\	-o	1G/	-o
2BB-/	què	2d\	que	2B-y\	que
2C/	pro-	2.c/	pro-	2G/	pro-
=115-	=115-	=115-	=115-	=115-	=115-
1D\	-ce-	.	.	1F/	-ce-
.	.	8B-/L	.	.	.
.	.	8A/J	.	.	.
!	!	!LO:N:acc=#	!	!	!
!	!	!LO:TX:t=P:♯below:problem	!	!	!
.	.	2Bn/	-ce-	.	.
2C/	-dit	2c/	-dit	0G/	-dit
1C/	Qui	1c\	Qui	.	.
=116-	=116-	=116-	=116-	=116-	=116-
*custos:F	*	*	*	*	*
2C/	cum	2c/	c(um)	.	.
!LO:LB:g=original	!	!	!	!	!
2.F\	Pa-	1A/	Pa-	2rF	.
.	.	.	.	1A\	Qui
4E\	.	.	.	.	.
=117-	=117-	=117-	=117-	=117-	=117-
*	*	*custos:G	*	*	*
4D/	.	1F/	-tre	.	.
4C/	.	.	.	.	.
2D/	-tre	.	.	2A/	cum
!	!	!LO:LB:g=original	!	!	!
2GG/	et	2G/	et	1B-\	Pa-
2.D/	fi-	4F/	fi-	.	.
.	.	4E/	.	.	.
=118-	=118-	=118-	=118-	=118-	=118-
.	.	4F/	.	2.A/	-tre
4C/	.	4G/	.	.	.
2AA/	.	1A/	.	.	.
.	.	.	.	4G/	.
2BB-/	.	.	.	4F/	.
.	.	.	.	4E/	.
*	*	*	*	*custos:E	*
2BB-/	-li-	2G/	-li-	2D/	ex
=119-	=119-	=119-	=119-	=119-	=119-
!	!	!	!	!LO:LB:g=original	!
2AA/	-o	2A/	-o	2E/	fi-
1D\	Si-	2.A/	Si-	2F/	-li-
.	.	.	.	2D,</	-o
.	.	4A/	-mul	.	.
2C/	-mul	2A/	a-	2E/	ſi-
=120-	=120-	=120-	=120-	=120-	=120-
2BB-/	a-	2B-y/	-do-	2F/	-mul
2AA/	-do-	(2F/	-ra-	2C/	a-
1GG/	-ra-	1G/)	.	2D/	-do-
.	.	.	.	2E/	-ra-
=121-	=121-	=121-	=121-	=121-	=121-
1FF/	-tur	2C/	-tur	1F/	-tur
.	.	1c\	et	.	.
*custos:D	*	*	*	*	*
1F\	et	.	.	2rF	.
.	.	2.A/	Con-	2F/	et
=122-	=122-	=122-	=122-	=122-	=122-
!LO:LB:g=original	!	!	!	!	!
1.D\	Con-	.	.	2F/	con-
.	.	4G/	.	.	.
.	.	4F/	.	2D/	-glo-
.	.	4E/	.	.	.
.	.	2D/	.	2F/	-ri-
2C/	-glo-	2E/	-glo-	2.G/	-fi-
=123-	=123-	=123-	=123-	=123-	=123-
2BB-/	-ri-	2F/	-ri-	.	.
.	.	.	.	4F/	.
*	*	*custos:G	*	*	*
2AA/	-fi-	2F/	-fi-	1F/	-ca-
!	!	!LO:LB:g=original	!	!	!
1GG/	-ca-	1G/	-ca-	.	.
.	.	.	.	2E/	-tur
=124-	=124-	=124-	=124-	=124-	=124-
1.FF/	-tur	2C/	-tur	1F/	.
.	.	1c\	Qui	.	.
.	.	.	.	2r	.
1F\	Qui	2c/	lo-	1c\	Qui
=125-	=125-	=125-	=125-	=125-	=125-
.	.	2.f\	-cu-	.	.
*	*	*	*	*custos:d	*
2F\	lo-	.	.	2c\	lo-
.	.	4f\	-tus	.	.
!	!	!	!	!LO:LB:g=original	!
2D/	-cu-	2f\	eſt	2d\	-cu-
2E\	-tus	2e\	per	2.c\	-tus
=126-	=126-	=126-	=126-	=126-	=126-
1F\	eſt	1c\	Pro-	.	.
.	.	.	.	4B-\	.
.	.	.	.	4A/	.
.	.	.	.	4G/	.
*	*	*lig	*	*	*
2.D/	per	1d\	-phe-	2A,</	eſt
.	.	.	.	1A\	per
4E\	.	.	.	.	.
=127-	=127-	=127-	=127-	=127-	=127-
2F\	Pro-	1c\	.	.	.
2FF/	-phe-	.	.	2A/	Pro-
*	*	*Xlig	*	*	*
1C/	.	1c\	-tas	1G/	-phe-
=128-	=128-	=128-	=128-	=128-	=128-
2FF/	-tas	2r	.	2F/	-tas
*custos:F	*	*	*	*	*
2F\	et	2c/	et	2A/	et
!LO:LB:g=original	!	!	!	!	!
2F\	v-	2c/	V-	2A/	v-
2F\	-nam	2c/	-nam	2A/	-nam
=129-	=129-	=129-	=129-	=129-	=129-
(<1D\	San-	1d\	San-	1F/	San-
*	*	*custos:f	*	*	*
1C/)	.	1e\	-ctam	2E/	-ct(am)
.	.	.	.	2C/	Ca-
=130-	=130-	=130-	=130-	=130-	=130-
!	!	!LO:PB:g=original	!	!	!
2FF/	-ctam	2.f\	Ca-	1c\	-tho-
2.F\	Ca-	.	.	.	.
.	.	4e\	.	.	.
.	.	2d\	.	0F/	-li-
4E\	.	.	.	.	.
4D/	.	1c\	-tho-	.	.
4C/	.	.	.	.	.
=131-	=131-	=131-	=131-	=131-	=131-
2D/	tho-	.	.	.	.
2D/	-li-	2B-/	-li-	.	.
1AA/	-cam	1.c\	-cam	2G,</	-cam
.	.	.	.	2c\	et
=132-	=132-	=132-	=132-	=132-	=132-
1F\	et	.	.	2c\	A-
*	*	*	*	*custos:A	*
.	.	2c/	et	2c\	-po-
!	!	!	!	!LO:LB:g=original	!
2F\	A-	2c/	A-	2.A/	-ſto-
2F\	-po-	2c/	-po-	.	.
.	.	.	.	4G/	.
=133-	=133-	=133-	=133-	=133-	=133-
2.D/	-sto-	2.d\	-sto-	2F/	-li-
.	.	.	.	2F/	-cam
4D/	-li-	4d\	-li-	.	.
*custos:FF	*	*	*	*	*
1C/	-cam	1e\	-cam	2E,</	.
.	.	.	.	2C/	Ec-
=134-	=134-	=134-	=134-	=134-	=134-
!LO:LB:g=original	!	!	!	!	!
2FF/	Ec-	2.f\	Ec-	2.c\	-cle-
2.F\	-cle-	.	.	.	.
.	.	4e\	.	4B-\	.
.	.	2d\	.	1.A\	-ſi-
4E\	.	.	.	.	.
4D/	.	1c\	-cle-	.	.
4C/	.	.	.	.	.
=135-	=135-	=135-	=135-	=135-	=135-
2D/	.	.	.	.	.
2D/	-ſi-	2B-/	-si-	2F/	.
2C/	-am	2c/	-am	1G/	-am
*	*	*custos:e	*	*	*
2C/	Con-	2e\	Con-	.	.
=136-	=136-	=136-	=136-	=136-	=136-
!	!	!LO:LB:g=original	!	!	!
2.C/	-fi-	2.e\	-fi-	2r	.
.	.	.	.	2c\	Con-
4C/	-te-	4e\	-te-	.	.
1F\	-or	2f\	-or	2.c\	-fi-
.	.	1f\	v-	.	.
.	.	.	.	4c\	-te-
=137-	=137-	=137-	=137-	=137-	=137-
1C/	V-	.	.	1c\	-or
.	.	2e\	-num	.	.
2FF/	-num	2.f\	Ba-	1A\	v-
2FF/	bap-	.	.	.	.
.	.	4e\	-pti-	.	.
=138-	=138-	=138-	=138-	=138-	=138-
1BB-/	-ti-	4d\	.	2B-\	-num
.	.	4c/	.	.	.
.	.	1d\,<	-ſma	2B-\	bap-
*	*	*	*	*custos:G	*
2FF/	-ſma	.	.	1B-\	-ti-
1G\	in	1d\	in	.	.
=139-	=139-	=139-	=139-	=139-	=139-
.	.	.	.	2G/	-ſma
*custos:G	*	*	*	*	*
!	!	!	!	!LO:TX:t=P:♯below:problem	!
!	!	!	!	!LO:N:acc=#	!
2G\	re-	2d\	re-	1Bn\	in
!LO:LB:g=original	!	!	!	!	!
2G\	-miſ-	2d\	-miſ-	.	.
2C/	-si-	2e\	-si-	2c\	re-
=140-	=140-	=140-	=140-	=140-	=140-
1G\	-o-	1d\	-o-	2c\	-miſ-
!	!	!	!	!LO:TX:t=P:♯below:problem	!
!	!	!	!	!LO:N:acc=#	!
.	.	.	.	2Bn\	-si-
1C/	-nem	1e\	-nem	2.c\	-o-
.	.	.	.	4B-y\	.
=141-	=141-	=141-	=141-	=141-	=141-
1FF/	pec-	1f\	pec-	4A/	.
.	.	.	.	4G/	.
.	.	.	.	2A,</	.
1C/	-ca-	1.c\	-ca-	2G/	-nem
.	.	.	.	1G/	pec-
=142-	=142-	=142-	=142-	=142-	=142-
0GG/	-to-	.	.	.	.
!	!	!LO:N:acc=#	!	!	!
!	!	!LO:TX:t=P:♯below:problem	!	!	!
.	.	4Bn/	.	2G/	-ca-
.	.	4A/	.	.	.
*	*	*custos:c	*	*	*
!	!	!LO:TX:t=P:♯below:problem	!	!	!
!	!	!LO:N:acc=#	!	!	!
.	.	1Bn/	-to-	1G/	-to-
=143-	=143-	=143-	=143-	=143-	=143-
!	!	!LO:LB:g=original	!	!	!
1C/,<	-rum	1c\	-rum	1G/	-rum
1C/	et	2r	.	1E/	et
.	.	2c/	et	.	.
=144-	=144-	=144-	=144-	=144-	=144-
1FF/	ex-	2.A/	ex-	0F/	ex-
.	.	4B-y/	.	.	.
1.F\	-pe-	2c/	.	.	.
.	.	2F/	.	.	.
=145-	=145-	=145-	=145-	=145-	=145-
*	*	*	*	*lig	*
.	.	0G/	-pe-	1C/	-pe-
4E\	.	.	.	.	.
4D/	.	.	.	.	.
*custos:F	*	*	*	*custos:A	*
1E\	.	.	.	1c\	.
*	*	*	*	*Xlig	*
=146-	=146-	=146-	=146-	=146-	=146-
!LO:PB:g=original	!	!	!	!LO:LB:g=original	!
2F\	-cto	1A/	-cto	2A/	-cto
1F\	re-	.	.	1c\	re-
.	.	0rc	.	.	.
2E\	-ſur-	.	.	2c\	-ſur-
=147-	=147-	=147-	=147-	=147-	=147-
2D/	-re-	.	.	2d\	-re-
2C/	-cti-	.	.	2G/	-cti-
1BB-/	-o-	2rA	.	1B-\	-o-
.	.	2.F/	re-	.	.
=148-	=148-	=148-	=148-	=148-	=148-
2FF/	-nem	.	.	1A\	-nem
.	.	4F/	-ſur-	.	.
1F\	Mor-	1A/	-rec-	.	.
.	.	.	.	1rA	.
2F\	-tu-	2A/	-ti-	.	.
=149-	=149-	=149-	=149-	=149-	=149-
*lig	*	*	*	*	*
1D\	-o-	2B-/	-o-	0F/	mor-
.	.	2A/	-nem	.	.
1BB-/	.	1.B-/	Mor-	.	.
*Xlig	*	*	*	*	*
=150-	=150-	=150-	=150-	=150-	=150-
0E-X\	.	.	.	0G/	-tu-
.	.	2G/	-tu-	.	.
.	.	1.G/	-o-	.	.
=151-	=151-	=151-	=151-	=151-	=151-
0D\	.	.	.	2B-\	-o-
!	!	!LO:TX:t=P:♯below:problem	!	!	!
.	.	4F#X/	.	4A/	.
*	*	*custos:F	*	*	*
.	.	4E/	.	4G/	.
!	!	!LO:LB:g=original	!	!	!
!	!	!LO:TX:t=P:♯below:problem	!	!	!
.	.	1F#X/	.	1A\	.
=152-	=152-	=152-	=152-	=152-	=152-
2GG,</	-rum	1G/	-rum	2G,</	-rum
2G\	et	.	.	2B-\	et
1G\	Vi-	2rA	.	1B-\	vi-
.	.	2d\	et	.	.
=153-	=153-	=153-	=153-	=153-	=153-
2F\	-t(am)	1d\	Vi-	1.A\	-tam
*custos:F	*	*	*	*	*
2D/	Ven-	.	.	.	.
!LO:LB:g=original	!	!	!	!	!
1F\	-tu-	2c/	-t(am)	.	.
.	.	2A/	Ven-	2F/	ven-
=154-	=154-	=154-	=154-	=154-	=154-
1C/	-ri	2.c/	-tu-	2F/	-tu-
*	*	*	*	*custos:F	*
.	.	.	.	2E/	-ri
.	.	4B-/	.	.	.
!	!	!	!	!LO:LB:g=original	!
2.D/	Sae-	2A/	.	2.F/	ſae-
.	.	2A/	-ri	.	.
4C/	.	.	.	4E/	.
=155-	=155-	=155-	=155-	=155-	=155-
2BB-/	.	2B-/	ſae-	2D/	.
2C/	.	2G/	-cu-	2E/	-cu-
2AA/	.	2G/	-li	2C/	-li
2AA/	-cu-	2Fny/	A-	2C/	A-
=156-	=156-	=156-	=156-	=156-	=156-
1GG/	-li	0G/	-men	1D/	-men
1.C/	A-	.	.	2rF	.
.	.	.	.	1G/	ſae-
=157-	=157-	=157-	=157-	=157-	=157-
.	.	1.c\	ſae-	.	.
2BB-/	.	.	.	2G/	-cu-
2AA/	.	.	.	2A/	-li
2GG/	.	2B-/	-cu-	4D/	.
.	.	.	.	4E/	A-
=158-	=158-	=158-	=158-	=158-	=158-
1FF/	.	2A/	-li	1F/	.
.	.	2.c/	A-	.	.
1C/	.	.	.	1G/	.
.	.	8B-/L	.	.	.
.	.	8A/J	.	.	.
.	.	2G/	-men	.	.
=159-	=159-	=159-	=159-	=159-	=159-
!LO:TX:t=P:problem=brak kresek taktowych na końcu	!	!LO:TX:t=P:problem=brak kresek taktowych na końcu	!	!LO:TX:t=P:problem=brak kresek taktowych na końcu	!
!LO:TX:t=P:problem=druga fermata odwrócona pod nutą	!	!LO:TX:t=P:problem=druga fermata odwrócona pod nutą	!	!LO:TX:t=P:problem=druga fermata odwrócona pod nutą	!
0FF/;	-men	0A/;	.	0F/	-men.
==	==	==	==	==	==
*-	*-	*-	*-	*-	*-
!!!RDF**kern: > = above
!!!RDF**kern: < = below
!!!system-decoration: [(s1,s2,s3)]
!!!EED: Andrzej Borzym
!!!EEV: 2021-03-22
!!!ENC: Anastazja Marusiak
!!!END: 2021-03-09
!!!YEC: Copyright 2022 Narodowy Instytut Fryderyka Chopina (https://polishscores.org)
!!!YEM: Licence CC BY 4.0 (https://creativecommons.org/licenses/by/4.0)
